assets/linkedin.svg

<svg xmlns="http://www.w3.org/2000/svg" width="32" height="32" viewBox="0 0 36 36" fill="none">
  <path d="M30.375 2.8125H5.625C4.87908 2.8125 4.16371 3.10882 3.63626 3.63626C3.10882 4.16371 2.8125 4.87908 2.8125 5.625V30.375C2.8125 31.1209 3.10882 31.8363 3.63626 32.3637C4.16371 32.8912 4.87908 33.1875 5.625 33.1875H30.375C31.1209 33.1875 31.8363 32.8912 32.3637 32.3637C32.8912 31.8363 33.1875 31.1209 33.1875 30.375V5.625C33.1875 4.87908 32.8912 4.16371 32.3637 3.63626C31.8363 3.10882 31.1209 2.8125 30.375 2.8125ZM29.8125 29.8125H6.1875V6.1875H29.8125V29.8125ZM15.75 24.75V16.875C15.7503 16.5243 15.8599 16.1824 16.0635 15.8969C16.2671 15.6114 16.5546 15.3963 16.886 15.2817C17.2175 15.1671 17.5764 15.1586 17.9129 15.2574C18.2494 15.3562 18.5467 15.5574 18.7636 15.833C19.6207 15.3837 20.5792 15.1632 21.5465 15.1927C22.5138 15.2222 23.4571 15.5007 24.2852 16.0014C25.1134 16.5021 25.7983 17.2079 26.2739 18.0507C26.7495 18.8935 26.9996 19.8448 27 20.8125V24.75C27 25.1976 26.8222 25.6268 26.5057 25.9432C26.1893 26.2597 25.7601 26.4375 25.3125 26.4375C24.8649 26.4375 24.4357 26.2597 24.1193 25.9432C23.8028 25.6268 23.625 25.1976 23.625 24.75V20.8125C23.625 20.2158 23.3879 19.6435 22.966 19.2215C22.544 18.7996 21.9717 18.5625 21.375 18.5625C20.7783 18.5625 20.206 18.7996 19.784 19.2215C19.3621 19.6435 19.125 20.2158 19.125 20.8125V24.75C19.125 25.1976 18.9472 25.6268 18.6307 25.9432C18.3143 26.2597 17.8851 26.4375 17.4375 26.4375C16.9899 26.4375 16.5607 26.2597 16.2443 25.9432C15.9278 25.6268 15.75 25.1976 15.75 24.75ZM13.5 16.875V24.75C13.5 25.1976 13.3222 25.6268 13.0057 25.9432C12.6893 26.2597 12.2601 26.4375 11.8125 26.4375C11.3649 26.4375 10.9357 26.2597 10.6193 25.9432C10.3028 25.6268 10.125 25.1976 10.125 24.75V16.875C10.125 16.4274 10.3028 15.9982 10.6193 15.6818C10.9357 15.3653 11.3649 15.1875 11.8125 15.1875C12.2601 15.1875 12.6893 15.3653 13.0057 15.6818C13.3222 15.9982 13.5 16.4274 13.5 16.875ZM9.5625 11.25C9.5625 10.805 9.69446 10.37 9.94169 9.99997C10.1889 9.62996 10.5403 9.34157 10.9515 9.17127C11.3626 9.00097 11.815 8.95642 12.2515 9.04323C12.6879 9.13005 13.0888 9.34434 13.4035 9.65901C13.7182 9.97368 13.9325 10.3746 14.0193 10.811C14.1061 11.2475 14.0615 11.6999 13.8912 12.111C13.7209 12.5222 13.4325 12.8736 13.0625 13.1208C12.6925 13.368 12.2575 13.5 11.8125 13.5C11.2158 13.5 10.6435 13.2629 10.2215 12.841C9.79955 12.419 9.5625 11.8467 9.5625 11.25Z" fill="#50CDE4"/>
</svg>

<svg xmlns="http://www.w3.org/2000/svg" width="32" height="32" fill="none" viewBox="0 0 36 36"><path fill="#50CDE4" d="M30.375 2.813H5.625a2.813 2.813 0 0 0-2.812 2.812v24.75a2.81 2.81 0 0 0 2.812 2.813h24.75a2.81 2.81 0 0 0 2.813-2.813V5.625a2.81 2.81 0 0 0-2.813-2.812m-.562 27H6.188V6.188h23.625zM15.75 24.75v-7.875a1.687 1.687 0 0 1 3.014-1.042A5.625 5.625 0 0 1 27 20.813v3.937a1.687 1.687 0 1 1-3.375 0v-3.937a2.25 2.25 0 0 0-4.5 0v3.937a1.687 1.687 0 1 1-3.375 0m-2.25-7.875v7.875a1.687 1.687 0 1 1-3.375 0v-7.875a1.687 1.687 0 1 1 3.375 0M9.563 11.25a2.25 2.25 0 1 1 4.5 0 2.25 2.25 0 0 1-4.5 0"/></svg>
